packages/katcn/src/icons/svg/lightning-solid.svg

<svg width="24" height="25" viewBox="0 0 24 25" fill="none" xmlns="http://www.w3.org/2000/svg">
<path d="M8.50001 23.968C8.20001 23.968 7.90001 23.868 7.60001 23.768C6.80001 23.368 6.40001 22.568 6.60001 21.768L7.80001 15.968H6.00001C5.20001 15.968 4.50001 15.468 4.20001 14.768C3.90001 14.068 4.00001 13.268 4.60001 12.768L14.1 2.66801C14.7 2.06801 15.7 1.86801 16.4 2.26801C17.2 2.66801 17.6 3.46801 17.4 4.26801L16.2 10.068H18C18.8 10.068 19.5 10.568 19.8 11.268C20.1 11.968 20 12.768 19.4 13.268L9.90001 23.368C9.50001 23.768 9.00001 23.968 8.50001 23.968Z" fill="black"/>
</svg>

<svg xmlns="http://www.w3.org/2000/svg" fill="none" viewBox="0 0 24 25"><path fill="#000" d="M8.5 23.968c-.3 0-.6-.1-.9-.2-.8-.4-1.2-1.2-1-2l1.2-5.8H6c-.8 0-1.5-.5-1.8-1.2s-.2-1.5.4-2l9.5-10.1c.6-.6 1.6-.8 2.3-.4.8.4 1.2 1.2 1 2l-1.2 5.8H18c.8 0 1.5.5 1.8 1.2s.2 1.5-.4 2l-9.5 10.1c-.4.4-.9.6-1.4.6"/></svg>
